X: 2
T: Bile (sic) Them Cabbage Down
M: 2/4
K: A clef=alto
L: 1/16
|: "A" c2cc c2cc | "D" d2dd d2dd | "A" c2cc c2cc | "E7" B2BB B2BB |
   "A" c2cc c2cc | "D" d2dd d2dd | "A" c2cc "E7" B2BB | "A" A2AA A4 :|
|: "A" E2EE E2EE | "D" F2FF F2FF | "A" E2EE E2EE | "E7" B,2B,B, B,2B,B, |
   "A" E2EE E2EE | "D" F2FF F2FF | "A" c2cc "E7" B2BB | "A" A2AA A4 :|

%% From Mel Bay's _Xmas solos (sic) for beginning viola",  p 15
